src/lib/packages/icons/src/assets/line/home-roof-search.svg

<svg width="24" height="24" viewBox="0 0 24 24" fill="none" xmlns="http://www.w3.org/2000/svg">
<path d="M21.477 9.08502L14.0649 2.98907C12.8679 2.00707 11.133 2.00607 9.93598 2.98907L2.52399 9.08404C2.20499 9.34704 2.15796 9.81907 2.42096 10.1401C2.68396 10.4611 3.15799 10.5051 3.47699 10.2431L4.24994 9.60711V18.0001C4.24994 20.4181 5.58194 21.7501 7.99994 21.7501H15.9999C18.4179 21.7501 19.7499 20.4181 19.7499 18.0001V9.60711L20.5229 10.2431C20.6629 10.3581 20.8319 10.414 20.9999 10.414C21.2159 10.414 21.4309 10.321 21.5789 10.141C21.8429 9.82005 21.796 9.34802 21.477 9.08502ZM18.2499 18.0001C18.2499 19.5771 17.5769 20.2501 15.9999 20.2501H7.99994C6.42294 20.2501 5.74994 19.5771 5.74994 18.0001V8.37408L10.889 4.14911C11.532 3.62011 12.469 3.62011 13.112 4.14911L18.2509 8.37506V18.0001H18.2499ZM7.74994 12.9171C7.74994 14.9391 9.39493 16.584 11.4169 16.584C12.1569 16.584 12.844 16.36 13.42 15.981L14.9689 17.5301C15.1149 17.6761 15.307 17.7501 15.499 17.7501C15.691 17.7501 15.883 17.6771 16.029 17.5301C16.322 17.2371 16.322 16.7621 16.029 16.4691L14.4789 14.919C14.8569 14.342 15.081 13.6551 15.081 12.9151C15.081 10.8941 13.436 9.24811 11.415 9.24811C9.39498 9.25011 7.74994 10.8951 7.74994 12.9171ZM13.583 12.9171C13.583 14.1121 12.6109 15.084 11.4169 15.084C10.2219 15.084 9.24994 14.1121 9.24994 12.9171C9.24994 11.7221 10.2219 10.7501 11.4169 10.7501C12.6109 10.7501 13.583 11.7221 13.583 12.9171Z" fill="currentColor"/>
</svg>

<svg xmlns="http://www.w3.org/2000/svg" width="24" height="24" fill="none"><path fill="currentColor" d="m21.477 9.085-7.412-6.096a3.26 3.26 0 0 0-4.129 0L2.524 9.084a.751.751 0 0 0 .953 1.16l.773-.637V18c0 2.418 1.332 3.75 3.75 3.75h8c2.418 0 3.75-1.332 3.75-3.75V9.607l.773.636a.749.749 0 0 0 1.056-.102.75.75 0 0 0-.102-1.056ZM18.25 18c0 1.577-.673 2.25-2.25 2.25H8c-1.577 0-2.25-.673-2.25-2.25V8.374l5.139-4.225a1.755 1.755 0 0 1 2.223 0l5.139 4.226V18h-.001Zm-10.5-5.083a3.671 3.671 0 0 0 3.667 3.667c.74 0 1.427-.224 2.003-.603l1.549 1.55a.748.748 0 0 0 1.06 0 .75.75 0 0 0 0-1.062l-1.55-1.55a3.645 3.645 0 0 0 .602-2.004 3.672 3.672 0 0 0-3.666-3.667 3.674 3.674 0 0 0-3.665 3.67Zm5.833 0a2.17 2.17 0 0 1-2.166 2.167 2.17 2.17 0 0 1-2.167-2.167 2.17 2.17 0 0 1 2.167-2.167 2.17 2.17 0 0 1 2.166 2.167Z"/></svg>
